X: 231
T: Miss H Erskine's Strathspey
C: by J Pringle
B: John Pringle "Collection of Reels Strathspeys & Jigs", 1801 p.23#1
Z: 2011 John Chambers <jc:trillian.mit.edu>
R: strathspey
M: C
L: 1/8
K: A
V: 1
e | {e}d>cBA B<FF>G | (A/B/c/d/ e)>c A>cea | d>c~BA B<FF>G | (A/B/c/d/ e)>c A2A :|
E | A>cec d>efd | ~B>c (d/c/B/A/) G>ABE | A>cec d>efd | (e/d/c/B/) AG A2A ||
E | A>cec d<fB>d | c<af>d c<eE>=G | F>Ad>B G>Be>c | (A/B/c/d/ e)>c A2A |]
V: 2 clef=bass middle=d
z | A2c2 d2d2 | e2e2 A2z2 | A2c2 d3^d | e2E2 A2A :|
z | a2a2 b2b2 | g2e2 e2e2 | a2a2 b2d2 | e2e2 A2A ||
z | a2a2 b2g2 | f2d2 e2e2 | d3^d e2c2 | e2E2 A2A |]

%%sep 2 1 500

